!!!!SEGMENT: T620_Hin-w19p11-12m1h12-h13m12.krn
!!!COM: Hindemith, Paul
!!!OTL: I: Lebhafte Halbe (Lively in Half Time)
!!!OMV: I: Lebhafte Halbe (Lively in Half Time)
!!!example: 620
!!!work: Hin-19
!!!AGN-sub: Chamber
!!!OPR: String Quartet Op. 32
!!!filename: T620_Hin-w19p11-12m1h12-h13m12.krn
**kern	**dynam	**kern	**dynam	**kern	**dynam	**kern	**dynam
*grp:A	*	*grp:A	*	*grp:B	*	*grp:B	*
*part4	*	*part3	*	*part2	*	*part1	*
*staff4	*	*staff3	*	*staff2	*	*staff1	*
*I"Violoncello	*	*I"Viola	*	*I"Violin II	*	*I"Violin I	*
*I'Vc.	*	*I'Vla.	*	*I'Vln. II	*	*I'Vln. I	*
*clefF4	*	*clefC3	*	*clefG2	*	*clefG2	*
*k[]	*	*k[]	*	*k[]	*	*k[]	*
*C:	*	*C:	*	*C:	*	*C:	*
*MM121	*	*MM121	*	*MM121	*	*MM121	*
=184	=184	=184	=184	=184	=184	=184	=184
*	*	*	*	*	*	*8va	*
!!LO:TX:t=[Lebhafte Halbe ([half]=126-132)]
!	!	!	!	!	!LO:DY:ed=brack	!	!LO:DY:ed=brack
4%11r	.	4%11r	.	(12bbL	fff	(8aaaL	fff
.	.	.	.	12ccc#X	.	.	.
.	.	.	.	.	.	8gggJ)	.
.	.	.	.	12aaJ)	.	.	.
.	.	.	.	(8bbL	.	(8dddL	.
.	.	.	.	8ggJ)	.	8eeeJ)	.
.	.	.	.	(8aaL	.	(12fff#XL	.
.	.	.	.	.	.	12eee	.
.	.	.	.	8eeJ)	.	.	.
.	.	.	.	.	.	12gggJ)	.
.	.	.	.	(8gg#XL	.	(12fff#L	.
.	.	.	.	.	.	12eee	.
.	.	.	.	8bbJ)	.	.	.
.	.	.	.	.	.	12dddJ)	.
*	*	*	*	*	*	*X8va	*
.	.	.	.	(12aaL	.	(8cccL	.
.	.	.	.	12ff#X	.	.	.
.	.	.	.	.	.	8eee-XJ)	.
.	.	.	.	12eeJ)	.	.	.
.	.	.	.	(8aaL	.	(8dddL	.
.	.	.	.	8bbJ)	.	8cccJ)	.
.	.	.	.	(8eeL	.	(12eee-XL	.
.	.	.	.	.	.	12ddd	.
.	.	.	.	8ggnJ)	.	.	.
.	.	.	.	.	.	12cccJ)	.
.	.	.	.	(12aaL	.	(8eee-L	.
.	.	.	.	12bb	.	.	.
.	.	.	.	.	.	8dddJ)	.
.	.	.	.	12eeJ)	.	.	.
.	.	.	.	(8ggL	.	(12cccL	.
.	.	.	.	.	.	12eee-X	.
.	.	.	.	8aaJ)	.	.	.
.	.	.	.	.	.	12dddJ)	.
.	.	.	.	(12bbL	.	(8cccL	.
.	.	.	.	12ee	.	.	.
.	.	.	.	.	.	8eee-XJ)	.
.	.	.	.	12ggJ)	.	.	.
.	.	.	.	(8aaL	.	(12dddL	.
.	.	.	.	.	.	12ccc	.
.	.	.	.	8bbJ)	.	.	.
.	.	.	.	.	.	12eee-XJ)	.
!!LO:REH:t=12
=185	=185	=185	=185	=185	=185	=185	=185
2r	.	2r	.	(12eeL	.	(8dddL	.
.	.	.	.	12gg	.	.	.
.	.	.	.	.	.	8cccJ)	.
.	.	.	.	12aaJ)	.	.	.
.	.	.	.	(8bbL	.	(12eee-XL	.
.	.	.	.	.	.	12ddd	.
.	.	.	.	8eeJ)	.	.	.
.	.	.	.	.	.	12cccJ)	.
4r	.	4r	.	(12ggL	.	(8bbL	.
.	.	.	.	12aa	.	.	.
.	.	.	.	.	.	8dddJ)	.
.	.	.	.	12bb-XJ)	.	.	.
4D	ff	4d	ff	(12aaL	.	(8ccc#XL	.
.	.	.	.	12gg#X	.	.	.
.	.	.	.	.	.	8bbJ)	.
.	.	.	.	12eeJ)	.	.	.
=186	=186	=186	=186	=186	=186	=186	=186
4E	.	4e	.	(8ggnL	.	(8cccnL	.
.	.	.	.	8ffJ)	.	8dddJ)	.
4F	.	4f	.	(8bb-XL	.	(12eee-XL	.
.	.	.	.	.	.	12ddd	.
.	.	.	.	8aaJ)	.	.	.
.	.	.	.	.	.	12cccJ)	.
4CC'^> 4AA-X	.	4D'^> 4B-X	.	(12ggL	.	(8bbL	.
.	.	.	.	12aa	.	.	.
.	.	.	.	.	.	8dddJ)	.
.	.	.	.	12bb-XJ)	.	.	.
4r	.	4r	.	(12aaL	.	(8ccc#XL	.
.	.	.	.	12gg#X	.	.	.
.	.	.	.	.	.	8bbJ)	.
.	.	.	.	12eeJ)	.	.	.
=187	=187	=187	=187	=187	=187	=187	=187
1r	.	1r	.	(8ggnL	.	(8cccnL	.
.	.	.	.	8ffJ)	.	8dddJ)	.
.	.	.	.	(8bb-XL	.	(12eee-XL	.
.	.	.	.	.	.	12ddd	.
.	.	.	.	8aaJ)	.	.	.
.	.	.	.	.	.	12cccJ)	.
.	.	.	.	(12ggL	.	(8bbL	.
.	.	.	.	12aa	.	.	.
.	.	.	.	.	.	8dddJ)	.
.	.	.	.	12bb-J)	.	.	.
.	.	.	.	(12aaL	.	(8ccc#XL	.
.	.	.	.	12gg#X	.	.	.
.	.	.	.	.	.	8bbJ)	.
.	.	.	.	12eeJ)	.	.	.
=188	=188	=188	=188	=188	=188	=188	=188
4r	.	4r	.	(8ggnL	.	(8cccnL	.
.	.	.	.	8ffJ)	.	8dddJ)	.
4D	.	4d	.	(8bb-XL	.	(12eee-XL	.
.	.	.	.	.	.	12ddd	.
.	.	.	.	8aaJ)	.	.	.
.	.	.	.	.	.	12cccJ)	.
4E	.	4e	.	(8aa-XL	.	(8bbL	.
.	.	.	.	8bb-J)	.	8eeJ)	.
4F	.	4f	.	(8ffL	.	(12aaL	.
.	.	.	.	.	.	12gg	.
.	.	.	.	8aa-XJ)	.	.	.
.	.	.	.	.	.	12ff#XJ)	.
=189	=189	=189	=189	=189	=189	=189	=189
4CC'^> 4AA-X	.	4D'^> 4B-X	.	(8ggL	.	(8eeL	.
.	.	.	.	8ee-XJ)	.	8gg#XJ)	.
4r	.	4r	.	(8aa-XL	.	(8bbL	.
.	.	.	.	8bb-XJ)	.	8eeJ)	.
2r	.	2r	.	(8ffL	.	(12aaL	.
.	.	.	.	.	.	12gg	.
.	.	.	.	8aa-J)	.	.	.
.	.	.	.	.	.	12ff#XJ)	.
.	.	.	.	(8ggL	.	(8eeL	.
.	.	.	.	8ee-J)	.	8gg#XJ)	.
=190	=190	=190	=190	=190	=190	=190	=190
2r	.	2r	.	(8aa-XL	.	(8bbL	.
.	.	.	.	8bb-XJ)	.	8eeJ)	.
.	.	.	.	(8ffL	.	(12aaL	.
.	.	.	.	.	.	12gg	.
.	.	.	.	8aa-J)	.	.	.
.	.	.	.	.	.	12ff#XJ)	.
4r	.	4r	.	(8ggL	.	(8eeL	.
.	.	.	.	8ee-XJ)	.	8gg#XJ)	.
4D	.	4d	.	(8aa-L	.	(8bbL	.
.	.	.	.	8bb-J)	.	8eeJ)	.
=191	=191	=191	=191	=191	=191	=191	=191
4E	.	4e	.	(8ffL	.	(12aaL	.
.	.	.	.	.	.	12gg	.
.	.	.	.	8aa-XJ)	.	.	.
.	.	.	.	.	.	12ff#XJ)	.
4F	.	4f	.	(8ggL	.	(8eeL	.
.	.	.	.	8ee-XJ)	.	8gg#XJ)	.
4CC'^> 4AA-X	.	4D'^> 4B-X	.	(8aa-L	.	(8bbL	.
.	.	.	.	8bb-XJ)	.	8eeJ)	.
4r	.	4r	.	(8ffL	.	(12aaL	.
.	.	.	.	.	.	12ggn	.
.	.	.	.	8aa-J)	.	.	.
.	.	.	.	.	.	12ff#J)	.
=192	=192	=192	=192	=192	=192	=192	=192
4r	.	4r	.	(8ggL	.	(8eeL	.
.	.	.	.	8ee-XJ)	.	8gg#XJ)	.
4D	.	4d	.	(8ffL	.	(12aaL	.
.	.	.	.	.	.	12ggn	.
.	.	.	.	8aa-XJ)	.	.	.
.	.	.	.	.	.	12ff#XJ)	.
4E	.	4e	.	(8ggL	.	(8eeL	.
.	.	.	.	8ee-J)	.	8gg#XJ)	.
4F	.	4f	.	(8ffL	.	(12aaL	.
.	.	.	.	.	.	12ggn	.
.	.	.	.	8aa-J)	.	.	.
.	.	.	.	.	.	12ff#J)	.
=193	=193	=193	=193	=193	=193	=193	=193
4CC'^> 4AA-X	.	4D'^> 4B-X	.	(8ggL	.	(8eeL	.
.	.	.	.	8ee-XJ)	.	8gg#XJ)	.
4r	.	4r	.	(8ffL	.	(12aaL	.
.	.	.	.	.	.	12ggn	.
.	.	.	.	8aa-XJ)	.	.	.
.	.	.	.	.	.	12ff#XJ)	.
4D	.	4d	.	(8ggL	.	(8eeL	.
.	.	.	.	8ee-J)	.	8gg#XJ)	.
4E	.	4e	.	(8ffL	.	(12aaL	.
.	.	.	.	.	.	12ggn	.
.	.	.	.	8aa-J)	.	.	.
.	.	.	.	.	.	12ff#J)	.
=194	=194	=194	=194	=194	=194	=194	=194
4F	.	4f	.	(8ggL	.	(8eeL	.
.	.	.	.	8ee-XJ)	.	8gg#XJ)	.
4CC'^> 4AA-X	.	4D'^> 4B-X	.	(8ffL	.	(8aaL	.
.	.	.	.	8aJ)	.	8ff#XJ)	.
4r	.	4r	.	(8ggL	.	(8eeL	.
.	.	.	.	8ee-J)	.	8gg#J)	.
4D	.	4d	.	(8ffL	.	(8aaL	.
.	.	.	.	8aJ)	.	8ff#J)	.
=195	=195	=195	=195	=195	=195	=195	=195
4E	.	4e	.	(8ggL	.	(8eeL	.
.	.	.	.	8ee-XJ)	.	8gg#XJ)	.
4F	.	4f	.	(8ffL	.	(8aaL	.
.	.	.	.	8aJ)	.	8ff#XJ)	.
4CC'^> 4AA-X	.	4D'^> 4B-X	.	(8ggL	.	(8eeL	.
.	.	.	.	8ee-J)	.	8gg#J)	.
4D^	<	4d^	<	(8ffL	.	(8aaL	.
.	.	.	.	8aJ)	.	8ff#J)	.
4E^	.	4e^	.	(8ggL	.	(8eeL	.
.	.	.	.	8ee-J)	.	8gg#J)	.
4F^	[[	4f^	[[	(8ffL	.	(8aaL	.
.	.	.	.	8aJ)	.	8ff#J)	.
=196	=196	=196	=196	=196	=196	=196	=196
2.CC^> 2.AA-X	.	2.D^> 2.B-X	.	(8gg#XL	.	(8eeL	.
.	.	.	.	8dd#XJ)	.	8bbJ)	.
.	.	.	.	(8cc#XL	.	(12aaL	.
.	.	.	.	.	.	12gg	.
.	.	.	.	8aa#XJ)	.	.	.
.	.	.	.	.	.	12ff#XJ)	.
.	.	.	.	(8bbL	.	(8ggL	.
.	.	.	.	8ff#XJ)	.	8dddJ)	.
8CC#XL	.	8C#XL	.	(8eeL	.	(8cccL	.
8DD#XJ	.	8D#XJ	.	8ddd#XJ)	.	8bbJ)	.
=197	=197	=197	=197	=197	=197	=197	=197
4EE	.	4E	.	(8ccc#XL	.	(12aaL	.
.	.	.	.	.	.	12ddd	.
.	.	.	.	8aaJ)	.	.	.
.	.	.	.	.	.	12cccnZJ)	.
8CC#XL	.	8C#XL	.	(12eeL	.	(8bbL	.
.	.	.	.	12ddd#X	.	.	.
8DD#XJ	.	8D#XJ	.	.	.	8aaJ)	.
.	.	.	.	12ccc#J)	.	.	.
4EE	.	4E	.	(8eeL	.	(12dddL	.
.	.	.	.	.	.	12ccc	.
.	.	.	.	8ddd#J)	.	.	.
.	.	.	.	.	.	12bbJ)	.
8CC#L	.	8C#L	.	(12ccc#L	.	(8aaL	.
.	.	.	.	12bb	.	.	.
8DD#J	.	8D#J	.	.	.	8eeeJ)	.
.	.	.	.	12aaJ)	.	.	.
=198	=198	=198	=198	=198	=198	=198	=198
*M6/4	*	*M6/4	*	*M6/4	*	*M6/4	*
*	*	*	*	*	*	*8va	*
*	*	*	*	*	*	*Xtuplet	*
4EE	.	4E	.	(8eeL	.	(12dddL	.
.	.	.	.	.	.	12ccc#X	.
.	.	.	.	8ddd#XJ)	.	.	.
.	.	.	.	.	.	12bbJ)	.
8FFL	.	8FL	.	(12bbL	.	(8eeeL	.
.	.	.	.	12aa	.	.	.
8GGJ	.	8GJ	.	.	.	8dddJ)	.
.	.	.	.	12eeJ)	.	.	.
8AA-XL	.	8A-XL	.	(8ddd#L	.	(12ccc#L	.
.	.	.	.	.	.	12bb	.
8GG	.	8G	.	8aaJ)	.	.	.
.	.	.	.	.	.	12eeeJ)	.
8FF	.	8F	.	(12eeL	.	(8dddL	.
.	.	.	.	12bb	.	.	.
8GGJ	.	8GJ	.	.	.	8ccc#J)	.
.	.	.	.	12aaJ)	.	.	.
4AA-	.	4A-	.	(12ddd#L	.	(8bbL	.
.	.	.	.	12bb	.	.	.
.	.	.	.	.	.	8fff#XJ)	.
.	.	.	.	12aaJ)	.	.	.
4C-X^>	.	4c-X^	.	(8bbL	.	(8eeeL	.
.	.	.	.	8aaJ)	.	8fff#J)	.
=199	=199	=199	=199	=199	=199	=199	=199
(2DD-X^>	.	(2D-X^>	.	(12ccc#XL	.	(8eeeL	.
.	.	.	.	12bb	.	.	.
.	.	.	.	.	.	8aaaJ)	.
.	.	.	.	12dddnJ)	.	.	.
.	.	.	.	(12ccc#L	.	(8gggL	.
.	.	.	.	12bb	.	.	.
.	.	.	.	.	.	8aaaJ)	.
.	.	.	.	12eeeJ)	.	.	.
*	*	*	*	*	*	*tuplet	*
4GG-X)	.	4G-X)	.	(8bbL	.	(12gggL	.
.	.	.	.	.	.	12fff#X	.
.	.	.	.	8dddJ)	.	.	.
.	.	.	.	.	.	12eeeJ)	.
8C-XL	.	8c-XL	.	(12bbL	.	(8aaaL	.
.	.	.	.	12ccc#	.	.	.
8BB-XJ	.	8B-XJ	.	.	.	8gggJ)	.
.	.	.	.	12dddJ)	.	.	.
*	*	*	*	*	*	*X8va	*
=200	=200	=200	=200	=200	=200	=200	=200
(2CC^>	.	(2C^>	.	(12ccc#XL	.	(8fff#XL	.
.	.	.	.	12bb	.	.	.
.	.	.	.	.	.	8eeJ)	.
.	.	.	.	12aaJ)	.	.	.
.	.	.	.	(8bbL	.	(12eeeL	.
.	.	.	.	.	.	12fff#	.
.	.	.	.	8eeJ)	.	.	.
.	.	.	.	.	.	12eeeJ)	.
4FF)	.	4F)	.	(12bbL	.	(8dddL	.
.	.	.	.	12aa	.	.	.
.	.	.	.	.	.	8eeJ)	.
.	.	.	.	12gg#XJ)	.	.	.
8BBnL	.	8BnL	.	(8aaL	.	(12eeeL	.
.	.	.	.	.	.	12fff#	.
8BBJ	.	8BJ	.	8eeJ)	.	.	.
.	.	.	.	.	.	12eeeJ)	.
=201	=201	=201	=201	=201	=201	=201	=201
4EE	.	4E	.	(12aaL	.	(8dddL	.
.	.	.	.	12gg#X	.	.	.
.	.	.	.	.	.	8eeJ)	.
.	.	.	.	12ff#XJ)	.	.	.
8AAL	.	8AL	.	(8gg#L	.	(12ccc#XL	.
.	.	.	.	.	.	12ddd	.
8AAJ	.	8AJ	.	8eeJ)	.	.	.
.	.	.	.	.	.	12ccc#J)	.
4DD	.	4D	.	(12gg#L	.	(8bbL	.
.	.	.	.	12aa	.	.	.
.	.	.	.	.	.	8eeJ)	.
.	.	.	.	12gg#J)	.	.	.
8EEL	.	8EL	.	(12ff#L	.	(8aaL	.
.	.	.	.	12gg#	.	.	.
8FF#XJ	.	8F#XJ	.	.	.	8eeJ)	.
.	.	.	.	12ff#J)	.	.	.
=202	=202	=202	=202	=202	=202	=202	=202
8GGL	.	8GL	.	(8eeL	.	(12bbL	.
.	.	.	.	.	.	12ccc#X	.
8FF#X	.	8F#X	.	8cc#XJ)	.	.	.
.	.	.	.	.	.	12bbJ)	.
8GG	.	8G	.	(8bL	.	(8aaL	.
8AAJ	.	8AJ	.	8ddJ)	.	8eeJ)	.
4BB-X	.	4B-X	.	(8gL	.	(8ggL	.
.	.	.	.	8bJ)	.	8ddJ)	.
8E-XL	.	8e-XL	.	(8gL	.	(8ffnL	.
8DJ	.	8dJ	.	8aJ)	.	8ccJ)	.
!!LO:REH:t=13
=203	=203	=203	=203	=203	=203	=203	=203
*grp:A	*	*grp:A	*	*grp:B	*	*grp:A	*
[2EEnT	.	[2EnT	.	(8fL	.	(8ddL	.
.	.	.	.	8gJ)	.	8aJ)	.
.	.	.	.	(8eL	>	4ee^	>
.	.	.	.	8fJ)	.	.	.
8EEL]	.	8EL]	.	(8dL	.	4ff^	.
8DD#X	.	8D#X	.	8eJ)	.	.	.
8EE	.	8E	.	(8cL	.	4gg^	.
8FF#XJ	.	8F#XJ	.	8dJ)	.	.	.
=204	=204	=204	=204	=204	=204	=204	=204
4DD#X	.	4D#X	.	(8BL	.	2.bt	.
.	.	.	.	8cJ)	.	.	.
4r	.	4r	.	(8AL	.	.	.
.	.	.	.	8BJ)	.	.	.
2r	.	[2d-X	p	(8GL	.	.	.
.	.	.	.	8AJ)	.	.	.
.	.	.	.	4G	] p	8gL	] mp
.	.	.	.	.	.	8aJ	.
=205	=205	=205	=205	=205	=205	=205	=205
*grp:A	*	*grp:B	*	*grp:A	*	*grp:A	*
1BB-X	p	2.d-]	.	1r	.	4b-X	.
.	.	.	.	.	.	8gL	.
.	.	.	.	.	.	8aJ	.
.	.	.	.	.	.	4b-	.
.	.	(12cL	.	.	.	8gL	.
.	.	12d-X	.	.	.	.	.
.	.	.	.	.	.	8aJ	.
.	.	12cJ	.	.	.	.	.
=206	=206	=206	=206	=206	=206	=206	=206
(2.C	.	4.G)	.	1.r	.	4b-X	.
.	.	.	.	.	.	8bnL	.
.	.	(8A	.	.	.	8cc#XJ	.
.	.	[2B-X	.	.	.	8ddL	.
.	.	.	.	.	.	8cc#	.
/4D)	.	.	.	.	.	8b	.
.	.	.	.	.	.	8cc#J	.
=207	=207	=207	=207	=207-	=207-	=207-	=207-
[1E-X	.	4B-])	.	.	.	4dd	.
.	.	(<4A	.	.	.	4ffn^	.
=-	=-	=-	=-	=	=	=	=
.	.	4c	.	4r	.	(2f#X	.
.	.	4B-X)	.	8aa'L	pp	.	.
.	.	.	.	8aa'J	.	.	.
=208	=208	=208	=208	=208-	=208-	=208-	=208-
2E-]	.	(2g-	.	4dd'	.	4b)	.
.	.	.	.	4r	.	8ddL	.
.	.	.	.	.	.	8cc#XJ	.
=-	=-	=-	=-	=	=	=	=
(2F	.	[2d-	.	4r	.	(2d#X	.
.	.	.	.	8ff#X'L	.	.	.
.	.	.	.	8ff#'J	.	.	.
2G-X)	.	6d-]	.	4b'	.	4g#X)	.
.	.	6c	.	.	.	.	.
.	.	.	.	4r	.	8ccnL	.
.	.	6B-)	.	.	.	.	.
.	.	.	.	.	.	8ccJ	.
=209	=209	=209	=209	=209	=209	=209	=209
*grp:A	*	*grp:A	*	*grp:A	*	*grp:A	*
[1AA-X^>	.	(2d-	.	1r	.	4f	.
.	.	.	.	.	.	/8b-XL	.
.	.	.	.	.	.	8b-J	.
.	.	2c)	.	.	.	4e-X	.
.	.	.	.	.	.	8fL	.
.	.	.	.	.	.	8gJ	.
=210	=210	=210	=210	=210	=210	=210	=210
(2AA-]	.	(4.F	.	1r	.	8a-XL	.
.	.	.	.	.	.	8g	.
.	.	.	.	.	.	8a-	.
.	.	8G	.	.	.	8b-XJ	.
2GG-X)	.	[2A-X	.	.	.	4bn	.
.	.	.	.	.	.	8eeL	.
.	.	.	.	.	.	8ee-XJ	.
=211	=211	=211	=211	=211	=211	=211	=211
[1FF-X	.	2A-])	.	4r	.	[2fnT	.
.	.	.	.	8ccc#X'L	.	.	.
.	.	.	.	8ccc#'J	.	.	.
.	.	(4.B-X	.	4ff#X'	.	8fL]	.
.	.	.	.	.	.	8e	.
.	.	.	.	4r	.	8f	.
.	.	/8c-X)	.	.	.	8gJ	.
=212	=212	=212	=212	=212	=212	=212	=212
2FF-]	.	(2C	.	4r	.	8aL	.
.	.	.	.	.	.	8b	.
.	.	.	.	8eee'L	.	8cc#X	.
.	.	.	.	8eee'J	.	8ddJ	.
(2EE-X	.	2.F	.	4aa'	.	8ee-XL	.
.	.	.	.	.	.	8dd	.
.	.	.	.	4r	.	8ee-	.
.	.	.	.	.	.	8ffJ	.
=-	=-	=-	=-	=-	=-	=	=
2DD-X	.	.	.	2r	.	8ff#XL	.
.	.	.	.	.	.	8gg#XJ	.
.	.	4G)	.	.	.	4aa^	mp
=213	=213	=213	=213	=213	=213	=213-	=213-
4CC)	.	4E	.	8r	.	4ggn^	.
.	.	.	.	(8gLi	p	.	.
4r	.	4c#X^	mf	8a	.	4ff#X^	.
.	.	.	.	8bJ	.	.	.
4r	.	4d^	.	8ccL	.	[2ddd	.
.	.	.	.	8b	.	.	.
8G#'L	p	4e^	.	8cc	.	.	.
8G#'J	.	.	.	8ddJ	.	.	.
=214	=214	=214	=214	=214	=214	=214	=214
4BB'	.	2.G#X	.	8eeL	.	4ddd]	.
.	.	.	.	8dd	.	.	.
8D'L	.	.	.	8cc	.	8fff#XL	.
8D'J	.	.	.	8bJ	.	8eeeJ	.
4EE'	.	.	.	8ccL	.	4ddd	.
.	.	.	.	8e	.	.	.
4r	.	8EL	.	8a	.	8fff#L	.
.	.	8F#XJ	.	8gJ	.	8eeeJ	.
=	=	=	=	=	=	=	=
*-	*-	*-	*-	*-	*-	*-	*-
!!!system-decoration: [(s1,s2,s3,s4)]
!!!RDF**kern: Z = editorial accidental, parenthesis
!!!RDF**kern: > = above
!!!RDF**kern: < = below
!!!EED: Daniel Wright
!!!EEV: 2022/09/13
!!!EED2: Jason Lee
!!!EEV2: 2022/10/24
!!!EED3: Bryan Bell
!!!EEV3: 2023/06/08
!!!CDT: 1895/11/16-1963/12/28
!!!CBL: Hanau, Germany
!!!CDL: Frankfurt, Germany
!!!CNT: German
!!!AGN: Instrumental
!!!MCN:
!!!MDT: 1923/11/05
!!!MGN: Quatuor Amar
!!!MLC: Vienna, Austria
!!!MPD: 1923
!!!MPN: Amar, Licco; Caspar, Walter; Frank, Maurits; Hindemith, Paul
!!!ODT: 1923
!!!PDT: 1924
!!!excerpt-start-measure: 184
!!!excerpt-end-measure: 211
!!!excerpt-start-time: 4:13
!!!excerpt-end-time: 5:06
!!!EEV: 2020/01/27
!!!ONB: Converted from MusicXML on 2020/01/27
!!!Suter_Work_ID: Hin-19
!!!Suter_Example_Number: 620
!!!Suter_Example_ID: Hin-19/11-12/1[12]-[13]12
!!!Premiere_Location: Vienna,Austria
!!!Other_Tsigs: {3/2},{2/2},{3/2},{2/2},{2/2};{3/2},{2/2},{3/2};{2/2},{2/2}
!!!Full_Unit_Duration: 7:02
!!!First_Publication_Year: 1924
!!!First_Public_Performance_Year: 1923
!!!Example_Total_Measures: 31
!!!Example_Timestamp_Duration: 52
!!!Example_Start_Tsig_Type: unmetered
!!!Example_Start_Tsig_Mean_Beat_Rate: 129
!!!Example_Start_Tsig_Beat_Rate: 129
!!!Example_Start_Tsig_Beat: {half}
!!!Example_Start_Tsig: {2/2}
!!!Example_Start_Timestamp: 4:13
!!!Example_Start_Tempo_Expression: [Lebhafte Halbe]
!!!Example_Start_Notated_Beat_Rate: [126-132]
!!!Example_Start_Notated_Beat: [half]
!!!Example_Start_Measure: 184
!!!Example_Metadata_Validated: Y
!!!Example_End_Timestamp: 5:05
!!!Example_End_Measure: 214
!!!Example_Dataset: T
!!!Editorial_Comments: Example Start Notated Beat and Example Start Notated Beat Rate [half=126-132] based on most recent notated beat rate (SWFU, m. 1). Example Start Tempo Expression [Lebhafte Halbe] based on most recent notated tempo expression (SWFU, m. 1). Interpretation Note: This example begins with an unmetered cadenza that lasts for 22 half notes; consequently, the second measure within the example, which reverts back to {2/2}, is taken as the Example Start Tsig as it reflects the metric structure of the example more accurately than the unmetered cadenza. Editorial Note: Full Unit Start Time Signature {2/2} based on a calculation of the number of half beats in the first unmetered measure, which remains for three measures before changing. Full Unit Start Tsig Type {duple} is used as there are four quarter notes per measure, while the Full Unit Start Notated Beat and Beat Rate is (half=126-132).
!!!Death_Place: Frankfurt,Germany
!!!Death_Date: 28-Dec-1963
!!!Changing_Tsig: {yes}
!!!Birth_Place: Hanau,Germany
!!!Birth_Date: 16-Nov-1895
!!!Audio_Example_Quarter_Note_Tempo:
!!!Audio_Example_Duration:
!!!RDF**kern: i = marked note, color="hotpink", text="extra("
